!!!COM: Hugo Wolf
!!!CNT: Deutscher
!!!TXO: Deutsche 
!!!OTL: Cophtisches Lied I
!!!ODT: 1888/12/28
!!!ONM: No. 14
!!!LYR: Johann Wolfgang von Goethe
!!!ENC: Brian Bice
!!!YOR: 45 Songs on Poems of Goethe and Eichendorff, Dover Publications, 1995
!!NB: Vocal melody and text only encoded.
**kern	**silbe
*clefG2	*
*k[b-e-a-d-]	*
*M4/4	*
=1	=1
{4cc	{Las-
8b-	-set
8a-	Ge-
4en	-lehr-
8en	-te
8en	sich
=2	=2
4f	zan-
8dd-	-ken
8cc	und
4cc	strei-
4b-	-ten,
=3	=3
4f	streng
8g	und
8g	be-
4a-	-da2ch-
8b-	-tig
8cc	die
=4	=4
4cc	Leh-
8ddn	-rer
8g	auch
4een}	sein!}
4r	.
=5	=5
{4cc	{Al-
8cc	-le
8cc	die
4en	wei-
8en	-ses-
8en	-ten
=6	=6
(8f	al-
8dd-)	|
8dd-	-ler
8cc	der
4cc	Zei-
4b-	-ten
=7	=7
4ff-	la2ch-
8ff-	-eln
8ff-	und
4ee-	win-
8dd-	-ken
8cc	und
=8	=8
4b-	stim-
8ee-	-men
8ddn	mit
4ee-}	ein:}
4r	.
=9	=9
{4f-	{To2r-
8f-	-icht,
8f-	auf
4f-	Bess-
8f-	-rung
8f-	der
=10	=10
4f-	To-
8ee-	-ren
8ddn	zu
4ee-	har-
4e-	-ren!
=11	=11
4f-	Kin-
8f-	-der
8f-	der
4f-	Klug-
8f-	-heit,
8cc	o
=12	=12
4cc	ha-
8cc	bet
8cc	die
4ee-	Nar-
4dd-	-ren
=13	=13
4cc	e-
8b-	-ben
8a-	zum
8.ee-	Nar-
16dd-	-ren
4b-	auch,
=14	=14
4e-	wie
8a-	sichs
8g	ge-
4a-}	-ho2rt!}
4r	.
=19	=19
{4b-	{Mer-
8b-	-lin
8b-	der
4f	Al-
8f	-te,
8g	im
=20	=20
4a-	leuch-
8g	-ten-
8f	-den
4g	Gra-
4c	-be,
=21	=21
4e-	wo
8e-	ich
8e-	als
(8e-	Ju2ng-
8g-)	|
8g-	-ling
8g-	ge-
=22	=22
4f#	-spro-
8f#	-chen
8g#	ihn
4g#	ha-
4f#	-be,
=23	=23
4en	hat
8g#	mich
8a#	mit
4bn	a2hn-
8an	-li-
8gn	-cher
=24	=24
4f#	Ant-
8bn	-wort
8b-	be-
2an}	-lehrt:}
=26	=26
{4d-	{To2-
8d-	-richt,
8d-	auf
4d-	Bess-
8d-	-rung
8d-	der
=27	=27
4d-	To-
8dd-	-ren
8dd-	zu
4cc	har-
4cc	-ren!
=28	=28
4d-	Kin-
8d-	-der
8d-	der
4d-	Klug-
8d-	-heit,
8d-	o
=29	=29
4d-	ha-
8dd-	-bet
8dd-	die
4cc	Nar-
4b-	-ren
=30	=30
4b--	e-
8a-	-ben
8a-	zum
8.ee-	Nar-
16dd-	-ren
4b-	auch,
=31	=31
4e-	wie
8a-	sichs
8g	ge-
4a-}	-ho2rt!}
4r	.
=36	=36
{4cc	{Und
8cc	auf
8cc	den
4cc	ho2-
8cc	-hen
8cc	der
=37	=37
4f	in-
8dd-	-dis-
8cc	-dich
4cc	Lu2f-
4b-	-te
=38	=38
4f	und
8f	in
8f	den
4g	Tie-
8g	-fen
8g	a2-
=39	=39
4a-	-gyp-
8g-	-ti-
8f-	-scher
4f-	Gru2f-
4e-	-te
=40	=40
4e-	hab
8e-	ich
8fn	das
4g-	hei-
8cc-	-li-
8b-	-ge
=41	=41
4an	Wort
8gn	nur
8gn	ge-
2an}	-ho2rt:}
=44	=44
{4c	{To2-
8c	-richt,
8c	auf
4c	Bess-
8c	-rung
8c	der
=45	=45
4c	To-
8cc	-ren
8cc	zu
4bn	har-
4d#	-ren!
=46	=46
4c	Kin-
8c	-der
8c	der
4c	Klug-
8c	-heit,
8cc	o
=47	=47
4cc	ha-
8cc	-bet
8cc	die
4ee-	Nar-
4dd-	-ren
=48	=48
4cc	e-
8b-	-ben
8a-	zum
8.ee-	Nar-
16dd-	-ren
4b-	auch,
=49	=49
4e-	wie
8a-	sichs
8g	ge-
4a-}	-ho2rt!}
4r	.
*-	*-
